X:8950
T:La Grande Urse - Valse/Walzer/Waltz
C:Ivan Karvaix
Z:abc transcription Simon Wascher
N:please mail errors to simon.wascher@chello.at
M:3/4
L:1/4
K:Ddorian
d>cA/B/|c2B|A/B/A/F/E/F/|A/F/E/F/E/D/|
d>cA/B/|c2B|A/B/c/A/B/c/|d3:|
|:D/E/F/D/E/F/|A3|D/E/F/D/E/F/|B3|
D/E/F/D/E/F/|c/B/A/c/B/A/|B/A/G/B/A/G/|A3:|


